X: 30899
T: Over The Bog Road
R: reel
M: 4/4
K: Gmajor
AB|GEDE ~G2GA|Bdgd BG~G2|AGEG A2cA|Bdgd BdAF|
GEDE ~G2GA|Bdgd BG~G2|Bdgd e2ge|dBAc BG:|
~g2|(3gfe de gBdg|b2af gfeg|ageg ~a2ab|c'2bg agef|
gede gBdg|(3baf (3agf gfed|Bdgd e2ge|dBAc BG:|

